actions/24/system-suspend.svg

<?xml version="1.0" encoding="UTF-8" standalone="no"?>
<!-- Created with Inkscape (http://www.inkscape.org/) -->

<svg
   xmlns:dc="http://purl.org/dc/elements/1.1/"
   xmlns:cc="http://creativecommons.org/ns#"
   xmlns:rdf="http://www.w3.org/1999/02/22-rdf-syntax-ns#"
   xmlns:svg="http://www.w3.org/2000/svg"
   xmlns="http://www.w3.org/2000/svg"
   xmlns:sodipodi="http://sodipodi.sourceforge.net/DTD/sodipodi-0.dtd"
   xmlns:inkscape="http://www.inkscape.org/namespaces/inkscape"
   width="24"
   height="24"
   id="svg13094"
   version="1.1"
   inkscape:version="0.48.3.1 r9886"
   sodipodi:docname="gnome-session-suspend.svg">
  <sodipodi:namedview
     id="base"
     pagecolor="#ffffff"
     bordercolor="#666666"
     borderopacity="1.0"
     inkscape:pageopacity="0.0"
     inkscape:pageshadow="2"
     inkscape:zoom="32.000002"
     inkscape:cx="11.005433"
     inkscape:cy="11.019492"
     inkscape:document-units="px"
     inkscape:current-layer="svg13094"
     showgrid="true"
     inkscape:snap-bbox="true"
     inkscape:bbox-paths="true"
     inkscape:bbox-nodes="true"
     inkscape:snap-bbox-edge-midpoints="true"
     inkscape:snap-bbox-midpoints="true"
     inkscape:object-paths="true"
     inkscape:snap-intersection-paths="true"
     inkscape:object-nodes="true"
     inkscape:snap-smooth-nodes="true"
     inkscape:snap-midpoints="true"
     inkscape:snap-object-midpoints="true"
     inkscape:snap-center="true"
     showguides="true"
     inkscape:guide-bbox="true"
     inkscape:window-width="1920"
     inkscape:window-height="1027"
     inkscape:window-x="-10"
     inkscape:window-y="31"
     inkscape:window-maximized="1"
     inkscape:snap-global="true"
     fit-margin-top="0"
     fit-margin-left="0"
     fit-margin-right="0"
     fit-margin-bottom="0"
     showborder="true"
     inkscape:showpageshadow="false">
    <inkscape:grid
       type="xygrid"
       id="grid3075"
       empspacing="5"
       visible="true"
       enabled="true"
       snapvisiblegridlinesonly="true"
       originx="1.6362304e-08px"
       originy="18px" />
  </sodipodi:namedview>
  <defs
     id="defs13096" />
  <metadata
     id="metadata13099">
    <rdf:RDF>
      <cc:Work
         rdf:about="">
        <dc:format>image/svg+xml</dc:format>
        <dc:type
           rdf:resource="http://purl.org/dc/dcmitype/StillImage" />
        <dc:title />
      </cc:Work>
    </rdf:RDF>
  </metadata>
  <path
     style="fill:#27303a;fill-opacity:0.753280819999999968;fill-rule:nonzero;stroke:none"
     d="M 12,4 C 8.6414184,4 5.7797393,6.0664986 4.59375,9 L 6.8125,9 C 7.8499369,7.2066295 9.7791781,6 12,6 c 2.220822,0 4.150063,1.2066295 5.1875,3 l 2.21875,0 C 18.220261,6.0664986 15.358582,4 12,4 z m -8,7 0,2 16,0 0,-2 -16,0 z m 0.59375,4 c 1.1859893,2.933501 4.0476684,5 7.40625,5 3.358582,0 6.220261,-2.066499 7.40625,-5 L 17.1875,15 C 16.150063,16.793371 14.220822,18 12,18 9.7791781,18 7.8499369,16.793371 6.8125,15 l -2.21875,0 z"
     id="path2994"
     inkscape:connector-curvature="0" />
  <path
     style="color:#000000;fill:#f1f3f5;fill-opacity:0.90288714000000003;fill-rule:nonzero;stroke:none;stroke-width:2;marker:none;visibility:visible;display:inline;overflow:visible;enable-background:accumulate"
     d="M 10.03125 3 C 6.8840967 3.6895271 4.3528084 5.9979673 3.3125 9 L 4.59375 9 C 5.7797342 6.0664951 8.6414016 4 12 4 C 15.358598 4 18.220266 6.0664951 19.40625 9 L 20.6875 9 C 19.647191 5.9979673 17.115993 3.6895271 13.96875 3 L 10.03125 3 z M 3 10 L 3 14 L 21 14 L 21 10 L 3 10 z M 4 11 L 20 11 L 20 13 L 4 13 L 4 11 z M 3.71875 16 C 4.9353827 18.507863 7.2431858 20.389148 10.03125 21 L 13.96875 21 C 16.756894 20.389148 19.064614 18.507863 20.28125 16 L 18.90625 16 C 17.521595 18.385673 14.957002 20 12 20 C 9.0429984 20 6.4784049 18.385673 5.09375 16 L 3.71875 16 z "
     id="path3003" />
</svg>

<?xml version="1.0" encoding="UTF-8"?>
<svg id="a" width="24" height="24" version="1.1" xmlns="http://www.w3.org/2000/svg" xmlns:cc="http://creativecommons.org/ns#" xmlns:dc="http://purl.org/dc/elements/1.1/" xmlns:rdf="http://www.w3.org/1999/02/22-rdf-syntax-ns#">
	<metadata id="c">
		<rdf:RDF>
			<cc:Work rdf:about="">
				<dc:format>image/svg+xml</dc:format>
				<dc:type rdf:resource="http://purl.org/dc/dcmitype/StillImage"/>
				<dc:title/>
			</cc:Work>
		</rdf:RDF>
	</metadata>
	<defs>
		<style id="current-color-scheme" type="text/css">.ColorScheme-Text {color:#090d11;}.ColorScheme-Background{color:#ffffff;}</style>
	</defs>
	<path id="b" d="m12 4c-3.3586 0-6.2203 2.0665-7.4062 5h2.2188c1.0374-1.7934 2.9667-3 5.1875-3 2.2208 0 4.1501 1.2066 5.1875 3h2.2188c-1.186-2.9335-4.0477-5-7.4062-5zm-8 7v2h16v-2h-16zm0.59375 4c1.186 2.9335 4.0477 5 7.4062 5 3.3586 0 6.2203-2.0665 7.4062-5h-2.2188c-1.0374 1.7934-2.9667 3-5.1875 3-2.2208 0-4.1501-1.2066-5.1875-3h-2.2188z" style="fill-opacity:.75;fill:currentColor" class="ColorScheme-Text"/>
	<path id="d" d="m12 3a9 9 0 0 0-8.0586 5h1.1387a8 8 0 0 1 6.9199-4 8 8 0 0 1 6.916 4h1.1348a9 9 0 0 0-8.0508-5zm-9 7v4h18v-4h-18zm1 1h16v2h-16v-2zm-0.050781 5a9 9 0 0 0 8.0508 5 9 9 0 0 0 8.0586-5h-1.1387a8 8 0 0 1-6.9199 4 8 8 0 0 1-6.916-4h-1.1348z" style="fill-opacity:.5;fill:currentColor"  class="ColorScheme-Background"/>
</svg>
